X: 19630
T: Jaws Of Angus, The
R: jig
M: 6/8
K: Adorian
|:[Cc]DE GAB|AGA BGB|cde fef|1 gec dBG:|2 ecA A2G||
|:e2e fef|gec dBG|1 e2e fef|ecA A2G:|2 gec def|ecA A2G||

